X:6690
T:The Dashing White Sergent
O:england
R:Introduction
M:4/4
L:1/8
K:D
AF|D2D2DEFG|A2A2A2f2|e2d2c2B2|
A3B AG[|"main"FE|:D2D2DEFG|A2A2A2fe|d2B2A2F2|B2E2EGFE|
D2D2DEFG|A2A2A2ff|e2d2c2B2|[1A3B AGFE:|[2A4A2E2|]
A2AB c2cd|e2ec A3A|B2Bc d2de|f2fd B3B|
c2A2d2A2|e2A2f2A2|g2f2e2d2|c2B2A2G2|
F2d2dcde|d2A2A2z2|B2e2edef|e2B2B2z2|
A2d2dcde|f2d2dcde|f2z2e2z2|d2cB AGFE


